src/assets/icons/more.svg

<svg width="12" height="20" viewBox="0 0 12 20" fill="none" xmlns="http://www.w3.org/2000/svg">
<path fill-rule="evenodd" clip-rule="evenodd" d="M6 0C9.31371 0 12 2.68629 12 6V14C12 17.3137 9.31371 20 6 20C2.68629 20 0 17.3137 0 14V6C0 2.68629 2.68629 0 6 0ZM6 2C3.79086 2 2 3.79086 2 6V14C2 16.2091 3.79086 18 6 18C8.20914 18 10 16.2091 10 14V6C10 3.79086 8.20914 2 6 2ZM6 5C6.55228 5 7 5.44772 7 6V8C7 8.55229 6.55228 9 6 9C5.44772 9 5 8.55229 5 8V6C5 5.44772 5.44772 5 6 5Z" fill="#CDCDCD"/>
</svg>

<svg xmlns="http://www.w3.org/2000/svg" width="12" height="20" fill="none" xmlns:v="https://vecta.io/nano"><path fill-rule="evenodd" d="M6 0a6 6 0 0 1 6 6v8a6 6 0 1 1-12 0V6a6 6 0 0 1 6-6zm0 2a4 4 0 0 0-4 4v8a4 4 0 1 0 8 0V6a4 4 0 0 0-4-4zm0 3a1 1 0 0 1 1 1v2a1 1 0 1 1-2 0V6a1 1 0 0 1 1-1z" fill="#cdcdcd"/></svg>
